packages/ffe-icons/icons/open/400/sm/pergola.svg

<svg xmlns="http://www.w3.org/2000/svg" height="20" viewBox="0 -960 960 960" width="20"><path d="M144-180v-648q0-15.3 10.29-25.65Q164.58-864 179.79-864t25.71 10.35Q216-843.3 216-828v60h528v-60q0-15.3 10.29-25.65Q764.58-864 779.79-864t25.71 10.35Q816-843.3 816-828v648q0 15.3-10.29 25.65Q795.42-144 780.21-144t-25.71-10.35Q744-164.7 744-180v-372H216v372q0 15.3-10.29 25.65Q195.42-144 180.21-144t-25.71-10.35Q144-164.7 144-180Zm72-444h528v-72H216v72Zm228 444v-84h-71.75q-15.25 0-25.75-10.29t-10.5-25.5q0-15.21 10.34-25.71t25.62-10.5h215.76q15.28 0 25.78 10.29 10.5 10.29 10.5 25.5t-10.35 25.71Q603.3-264 588-264h-72v84q0 15.3-10.29 25.65Q495.42-144 480.21-144t-25.71-10.35Q444-164.7 444-180ZM216-624v-72 72Z"/></svg>

<svg xmlns="http://www.w3.org/2000/svg" height="20" viewBox="0 -960 960 960" width="20"><path d="M144-180v-648q0-15.3 10.289-25.65 10.29-10.35 25.5-10.35Q195-864 205.5-853.65 216-843.3 216-828v60h528v-60q0-15.3 10.289-25.65 10.29-10.35 25.5-10.35Q795-864 805.5-853.65 816-843.3 816-828v648q0 15.3-10.289 25.65-10.29 10.35-25.5 10.35Q765-144 754.5-154.35 744-164.7 744-180v-372H216v372q0 15.3-10.289 25.65-10.29 10.35-25.5 10.35Q165-144 154.5-154.35 144-164.7 144-180Zm72-444h528v-72H216v72Zm228 444v-84h-71.753Q357-264 346.5-274.289q-10.5-10.29-10.5-25.5Q336-315 346.338-325.5 356.677-336 371.96-336h215.757Q603-336 613.5-325.711q10.5 10.29 10.5 25.5Q624-285 613.65-274.5 603.3-264 588-264h-72v84q0 15.3-10.289 25.65-10.29 10.35-25.5 10.35Q465-144 454.5-154.35 444-164.7 444-180ZM216-624v-72 72Z"/></svg>
